X: 17573
T: Hob Nobs
R: slip jig
M: 9/8
K: Bminor
|:EEE dcA BBB|EEE dcB AFD|EEE dcA B2c|1 d2c dcB AFD:|2 d2c dcB ABd||
|:eee gfd eee|E2f gfe dBA|B2f gfd e2c|1 d3 d2B ABd:|2 d3 d2B AFD||

